src/assets/paintbrush.svg

<svg version="1.1" id="Capa_1" xmlns="http://www.w3.org/2000/svg" xmlns:xlink="http://www.w3.org/1999/xlink"
	viewBox="0 0 444.892 444.892">
	<g id="XMLID_476_">
		<path id="XMLID_503_" d="M440.498,173.103c5.858-5.857,5.858-15.355,0-21.213l-22.511-22.511c-5.091-5.091-13.084-5.846-19.038-1.8
		l-47.332,32.17l31.975-47.652c3.993-5.951,3.219-13.897-1.85-18.964l-48.83-48.83c-4.508-4.508-11.372-5.675-17.114-2.908
		l-8.443,4.065l4.043-8.97c2.563-5.685,1.341-12.361-3.068-16.771L293.002,4.393c-5.857-5.857-15.355-5.857-21.213,0
		l-119.06,119.059l168.71,168.71L440.498,173.103z" />
		<path id="XMLID_1199_" d="M130.56,145.622l-34.466,34.466c-2.813,2.813-4.394,6.628-4.394,10.606s1.58,7.794,4.394,10.606
		l32.694,32.694c6.299,6.299,9.354,14.992,8.382,23.849c-0.971,8.851-5.843,16.677-13.366,21.473
		C27.736,340.554,18.781,349.51,15.839,352.453c-21.119,21.118-21.119,55.48,0,76.6c21.14,21.14,55.504,21.098,76.6,0
		c2.944-2.943,11.902-11.902,73.136-107.965c4.784-7.505,12.607-12.366,21.462-13.339c8.883-0.969,17.575,2.071,23.859,8.354
		l32.694,32.694c5.857,5.857,15.356,5.857,21.213,0l34.467-34.467L130.56,145.622z M70.05,404.825c-8.28,8.28-21.704,8.28-29.983,0
		c-8.28-8.28-8.28-21.704,0-29.983c8.28-8.28,21.704-8.28,29.983,0C78.33,383.121,78.33,396.545,70.05,404.825z" />
	</g>
</svg>

<svg width="445" height="445" viewBox="0 0 445 445" fill="none" xmlns="http://www.w3.org/2000/svg">
	<g id="paintbrush 1" clip-path="url(#clip0)" fill="var(--txt)">
		<g id="XMLID 476">
			<path id="XMLID 503"
				d="M440.769 173.103C446.627 167.246 446.627 157.748 440.769 151.89L418.258 129.379C413.167 124.288 405.174 123.533 399.22 127.579L351.888 159.749L383.863 112.097C387.856 106.146 387.082 98.2 382.013 93.133L333.183 44.303C328.675 39.795 321.811 38.628 316.069 41.395L307.626 45.46L311.669 36.49C314.232 30.805 313.01 24.129 308.601 19.719L293.273 4.39299C287.416 -1.46401 277.918 -1.46401 272.06 4.39299L153 123.452L321.71 292.162L440.769 173.103Z"
				fill="var(--txt)" />
			<path id="XMLID 1199"
				d="M130.56 145.622L96.094 180.088C93.281 182.901 91.7 186.716 91.7 190.694C91.7 194.672 93.28 198.488 96.094 201.3L128.788 233.994C135.087 240.293 138.142 248.986 137.17 257.843C136.199 266.694 131.327 274.52 123.804 279.316C27.736 340.554 18.781 349.51 15.839 352.453C-5.27999 373.571 -5.27999 407.933 15.839 429.053C36.979 450.193 71.343 450.151 92.439 429.053C95.383 426.11 104.341 417.151 165.575 321.088C170.359 313.583 178.182 308.722 187.037 307.749C195.92 306.78 204.612 309.82 210.896 316.103L243.59 348.797C249.447 354.654 258.946 354.654 264.803 348.797L299.27 314.33L130.56 145.622ZM70.05 404.825C61.77 413.105 48.346 413.105 40.067 404.825C31.787 396.545 31.787 383.121 40.067 374.842C48.347 366.562 61.771 366.562 70.05 374.842C78.33 383.121 78.33 396.545 70.05 404.825Z"
				fill="var(--txt)" />
			<mask id="mask0" mask-type="alpha" maskUnits="userSpaceOnUse" x="153" y="0" width="293" height="293">
				<path id="XMLID 1200"
					d="M440.769 173.103C446.627 167.246 446.627 157.748 440.769 151.89L418.258 129.379C413.167 124.288 405.174 123.533 399.22 127.579L351.888 159.749L383.863 112.097C387.856 106.146 387.082 98.1998 382.013 93.1328L333.183 44.3027C328.675 39.7947 321.811 38.6277 316.069 41.3947L307.626 45.4597L311.669 36.4897C314.232 30.8047 313.01 24.1287 308.601 19.7188L293.273 4.39275C287.416 -1.46425 277.918 -1.46425 272.06 4.39275L153 123.452L321.71 292.162L440.769 173.103Z"
					fill="var(--txt)" />
			</mask>
			<g mask="url(#mask0)">
				<path id="Rectangle 1"
					d="M223.5 26.5L270 -23L466 162L395.5 245.5C395.5 245.5 329.5 162 315 91.5C300.5 21 223.5 26.5 223.5 26.5Z"
					fill="var(--accent)" />
			</g>
		</g>
	</g>
	<defs>
		<clipPath id="clip0">
			<rect width="444.892" height="444.892" fill="white" />
		</clipPath>
	</defs>
</svg>
